T: Ridee
M: 3/2
L: 1/8
K: Bmin
|: Bz B2 cd | Bz B2 cd | Bz B2 cd | ed ce dc :| ~ festourobin|: B2 fB cd | B2 gB cd | B2 AB cd | ed cd dc :| ~ Jeffrey|: B2 fB cd | B2 gB cd | B2 AB cd | ed ce dc :| ~ Hetty
